X: 19
T: Morning Dew, The
Z: Will The Whistler
S: https://thesession.org/tunes/69#setting50681
R: reel
M: 4/4
L: 1/8
K: Edor
|:E3B BAFD|EBEB ADFA|E3B BAFA|BcdB ADFA:|
|:B2 eB fBeB|B2 eB ADFA|1B2 eB fBeB|dedB ADFA:|2 B/2c/2 degf z2 e | dedB ADFA ||
|:BAGF EFGA|BEGB ADFA|BAGF EFGA|BcdB ADFA:|

